Apricity Icons/24/panel/weather-showers-scattered.svg

<svg xmlns="http://www.w3.org/2000/svg" width="24" height="24" version="1.1">
 <defs>
  <style id="current-color-scheme" type="text/css">
   .ColorScheme-Text { color:#dfdfdf; } .ColorScheme-Highlight { color:#4285f4; }
  </style>
 </defs>
 <path style="fill:currentColor" class="ColorScheme-Text" d="m 12,4.0039062 c -2.07107,0 -3.83471,1.2679201 -4.59375,3.0625 C 5.47842,7.3530063 4,8.9963263 4,11.003906 c 0,1.933 1.36477,3.53327 3.1875,3.90625 0.76412,-0.77854 1.52122,-1.56145 2.3125,-2.3125 0.57304,0.53801 1.13306,1.09923 1.6875,1.65625 0.24292,-0.069 0.38252,-0.84617 0.71875,-1.09375 0.85427,-0.86808 1.70924,-1.72483 2.59375,-2.5625 0.66629,0.62449 1.29148,1.26106 1.9375,1.90625 0.59794,0.57143 1.22758,1.20365 1.4375,2.03125 0.016,0.0511 0.01805,0.10465 0.03125,0.15625 C 19.1415,14.150916 20,12.938456 20,11.503906 20,9.707366 18.64921,8.2352063 16.90625,8.0351562 16.45168,5.7417662 14.42687,4.0039062 12,4.0039062 Z M 14.5,12 14.15625,12.34375 12.75,13.75 C 12.29685,14.20315 12,14.8126 12,15.5 c 0,1.37479 1.12521,2.5 2.5,2.5 1.37479,0 2.5,-1.12521 2.5,-2.5 0,-0.6874 -0.29685,-1.29685 -0.75,-1.75 L 14.84375,12.34375 14.5,12 Z M 9.5,14 9.15625,14.34375 7.75,15.75 C 7.29685,16.20315 7,16.8126 7,17.5 7,18.87479 8.12521,20 9.5,20 10.87479,20 12,18.87479 12,17.5 12,16.8126 11.70315,16.20315 11.25,15.75 L 9.84375,14.34375 9.5,14 Z"/>
</svg>

<svg xmlns="http://www.w3.org/2000/svg" width="24" height="24"><defs><style id="current-color-scheme" type="text/css"></style></defs><path d="M12 4.004c-2.071 0-3.835 1.268-4.594 3.062A3.981 3.981 0 0 0 4 11.004a3.982 3.982 0 0 0 3.188 3.906c.764-.778 1.52-1.561 2.312-2.312.573.538 1.133 1.099 1.688 1.656.242-.07.382-.846.718-1.094.855-.868 1.71-1.725 2.594-2.562.666.624 1.291 1.26 1.938 1.906.597.571 1.227 1.204 1.437 2.031.016.051.018.105.031.156A3.468 3.468 0 0 0 20 11.504a3.49 3.49 0 0 0-3.094-3.469A5.011 5.011 0 0 0 12 4.004zM14.5 12l-.344.344-1.406 1.406c-.453.453-.75 1.063-.75 1.75 0 1.375 1.125 2.5 2.5 2.5s2.5-1.125 2.5-2.5c0-.687-.297-1.297-.75-1.75l-1.406-1.406L14.5 12zm-5 2l-.344.344L7.75 15.75c-.453.453-.75 1.063-.75 1.75C7 18.875 8.125 20 9.5 20s2.5-1.125 2.5-2.5c0-.687-.297-1.297-.75-1.75l-1.406-1.406L9.5 14z" fill="currentColor" color="#dfdfdf"/></svg>
